svg/color/gemini.svg

<svg width="64" height="65" viewBox="0 0 64 65" fill="none" xmlns="http://www.w3.org/2000/svg">
<g clip-path="url(#clip0_22411_2407)">
<path d="M32 64.3037C49.6731 64.3037 64 49.9768 64 32.3037C64 14.6306 49.6731 0.303711 32 0.303711C14.3269 0.303711 0 14.6306 0 32.3037C0 49.9768 14.3269 64.3037 32 64.3037Z" fill="#00DCFA"/>
<path d="M32 0.803711C49.397 0.803711 63.5 14.9067 63.5 32.3037C63.5 49.7007 49.397 63.8037 32 63.8037C14.603 63.8037 0.5 49.7007 0.5 32.3037C0.5 14.9067 14.603 0.803711 32 0.803711Z" stroke="#070B14" stroke-opacity="0.15"/>
<path d="M38.756 10.3037C31.016 10.3037 24.442 16.2557 23.616 23.9177C15.95 24.7457 10 31.3197 10 39.0577C10.0021 43.1002 11.6088 46.9766 14.4671 49.8352C17.3254 52.6939 21.2015 54.3011 25.244 54.3037C32.984 54.3037 39.584 48.3517 40.384 40.6897C48.048 39.8617 54 33.2877 54 25.5497C53.9979 21.5072 52.3912 17.6309 49.5329 14.7722C46.6746 11.9135 42.7985 10.3064 38.756 10.3037ZM50.428 27.2557C50.0474 29.7558 48.8776 32.0689 47.0894 33.8571C45.3011 35.6453 42.9881 36.8151 40.488 37.1957V27.2557H50.428ZM13.572 37.3517C13.9475 34.8469 15.1151 32.528 16.9037 30.7347C18.6924 28.9414 21.0081 27.7678 23.512 27.3857V37.3257H13.572V37.3517ZM36.918 40.7917C36.5051 43.592 35.0984 46.1503 32.955 47.9992C30.8116 49.8481 28.0746 50.8641 25.244 50.8617C22.4139 50.8641 19.6774 49.8483 17.5344 47.9998C15.3914 46.1513 13.9849 43.5935 13.572 40.7937H36.918V40.7917ZM37.048 27.2557V37.3257H26.952V27.2557H37.048ZM50.428 23.8157H27.082C27.4949 21.0154 28.9016 18.4571 31.045 16.6082C33.1884 14.7593 35.9254 13.7433 38.756 13.7457C41.5861 13.7433 44.3226 14.7591 46.4656 16.6076C48.6086 18.4561 50.0151 21.0159 50.428 23.8157Z" fill="white"/>
</g>
<defs>
<clipPath id="clip0_22411_2407">
<rect width="64" height="64" fill="white" transform="translate(0 0.303711)"/>
</clipPath>
</defs>
</svg>

<svg xmlns="http://www.w3.org/2000/svg" width="64" height="65" fill="none" viewBox="0 0 64 65"><g clip-path="url(#gemini_svg-a)"><path fill="#00DCFA" d="M32 64.304c17.673 0 32-14.327 32-32s-14.327-32-32-32-32 14.327-32 32 14.327 32 32 32"/><path stroke="#070B14" stroke-opacity=".15" d="M32 .804c17.397 0 31.5 14.103 31.5 31.5s-14.103 31.5-31.5 31.5S.5 49.7.5 32.304 14.603.804 32 .804Z"/><path fill="#fff" d="M38.756 10.304c-7.74 0-14.314 5.952-15.14 13.614C15.95 24.746 10 31.32 10 39.058a15.254 15.254 0 0 0 15.244 15.246c7.74 0 14.34-5.952 15.14-13.614C48.048 39.862 54 33.288 54 25.55a15.254 15.254 0 0 0-15.244-15.246m11.672 16.952a11.86 11.86 0 0 1-9.94 9.94v-9.94zM13.572 37.352a11.86 11.86 0 0 1 9.94-9.966v9.94h-9.94zm23.346 3.44a11.79 11.79 0 0 1-11.674 10.07 11.79 11.79 0 0 1-11.672-10.068h23.346zm.13-13.536v10.07H26.952v-10.07zm13.38-3.44H27.082a11.79 11.79 0 0 1 11.674-10.07 11.79 11.79 0 0 1 11.672 10.07"/></g><defs><clipPath id="gemini_svg-a"><path fill="#fff" d="M0 .304h64v64H0z"/></clipPath></defs></svg>
